src/assets/ENSWithGradient.svg

<svg viewBox="0 0 24 24" fill="none" xmlns="http://www.w3.org/2000/svg">
<path d="M4.04902 5.66275C4.27326 5.24475 4.59687 4.88836 4.99133 4.62507L11.6112 0L4.82833 11.2218C4.82833 11.2218 4.23569 10.2197 4.00456 9.71265C3.71653 9.07515 3.57128 8.38235 3.57895 7.6828C3.58663 6.9832 3.74707 6.2938 4.04902 5.66275ZM1.31692 13.4038C1.39167 14.4769 1.6947 15.5217 2.20574 16.4681C2.71679 17.4146 3.42404 18.2409 4.28014 18.8916L11.6023 24C11.6023 24 7.02112 17.3944 3.15708 10.8215C2.76589 10.127 2.5029 9.3678 2.38072 8.5801C2.32663 8.2234 2.32663 7.8606 2.38072 7.5039C2.27997 7.6907 2.0844 8.07315 2.0844 8.07315C1.6926 8.87265 1.42576 9.72755 1.29322 10.6081C1.21692 11.5388 1.22486 12.4745 1.31692 13.4038ZM19.9852 14.2933C19.7482 13.7863 19.1614 12.7842 19.1614 12.7842L12.3905 24L19.0103 19.3779C19.4048 19.1146 19.7284 18.7583 19.9526 18.3402C20.2546 17.7092 20.415 17.0197 20.4227 16.3202C20.4304 15.6206 20.2851 14.9278 19.9971 14.2903L19.9852 14.2933ZM22.6728 10.5991C22.5981 9.526 22.295 8.48125 21.784 7.5348C21.2729 6.58835 20.5657 5.7621 19.7096 5.1113L12.3994 0C12.3994 0 16.9775 6.60555 20.8446 13.1785C21.2347 13.8732 21.4967 14.6323 21.6179 15.4199C21.672 15.7766 21.672 16.1394 21.6179 16.4961C21.7187 16.3093 21.9143 15.9269 21.9143 15.9269C22.3061 15.1274 22.5729 14.2724 22.7054 13.3919C22.7827 12.4613 22.7758 11.5256 22.6847 10.5962L22.6728 10.5991Z" fill="url(#paint0_linear_2323_2424)"/>
<defs>
<linearGradient id="paint0_linear_2323_2424" x1="15.5737" y1="26.8445" x2="-8.9822" y2="-11.906" gradientUnits="userSpaceOnUse">
<stop stop-color="#44BCF0"/>
<stop offset="0.428185" stop-color="#628BF3"/>
<stop offset="1" stop-color="#A099FF"/>
</linearGradient>
</defs>
</svg>

<svg xmlns="http://www.w3.org/2000/svg" fill="none" viewBox="0 0 24 24"><path fill="url(#a)" d="M4.049 5.663a2.89 2.89 0 0 1 .942-1.038L11.611 0 4.828 11.222s-.592-1.002-.823-1.51a4.802 4.802 0 0 1 .044-4.05m-2.732 7.74a7.554 7.554 0 0 0 2.963 5.489L11.602 24s-4.58-6.606-8.445-13.178a6.641 6.641 0 0 1-.776-2.242 3.589 3.589 0 0 1 0-1.076c-.101.187-.297.57-.297.57a8.705 8.705 0 0 0-.79 2.534c-.077.93-.07 1.867.023 2.796m18.668.89c-.237-.507-.824-1.509-.824-1.509L12.391 24l6.62-4.622c.394-.263.717-.62.942-1.038a4.802 4.802 0 0 0 .044-4.05zm2.688-3.694a7.554 7.554 0 0 0-2.963-5.488L12.4 0s4.577 6.606 8.445 13.179a6.64 6.64 0 0 1 .773 2.24c.054.358.054.72 0 1.077.1-.187.296-.57.296-.57.392-.799.659-1.654.791-2.534.078-.93.07-1.866-.02-2.796z"/><defs><linearGradient id="a" x1="15.574" x2="-8.982" y1="26.845" y2="-11.906" gradientUnits="userSpaceOnUse"><stop stop-color="#44BCF0"/><stop offset=".428" stop-color="#628BF3"/><stop offset="1" stop-color="#A099FF"/></linearGradient></defs></svg>
